public/assets/images/fife.svg

<svg width="34" height="40" viewBox="0 0 34 40" fill="none" xmlns="http://www.w3.org/2000/svg">
<path d="M1.3 13.74V6.24C1.3 4.04 1.78 2.46 2.74 1.5C3.74 0.499999 5.34 -2.14577e-06 7.54 -2.14577e-06H21.16C21.72 -2.14577e-06 22.1 0.0999978 22.3 0.299998C22.5 0.499997 22.6 0.879997 22.6 1.44V1.68C22.6 2.24 22.5 2.62 22.3 2.82C22.1 3.02 21.72 3.12 21.16 3.12H7.9C5.7 3.12 4.6 4.2 4.6 6.36V13.62C4.6 15.78 5.7 16.86 7.9 16.86H10.96C15.6 16.86 19.02 17.76 21.22 19.56C23.42 21.36 24.52 24.18 24.52 28.02C24.52 31.86 23.44 34.72 21.28 36.6C19.16 38.48 15.84 39.42 11.32 39.42C7.88 39.42 4.82 39.06 2.14 38.34C1.54 38.18 1.14 38.02 0.94 37.86C0.78 37.66 0.7 37.28 0.7 36.72V36.24C0.7 35.12 1.18 34.72 2.14 35.04C4.74 35.88 7.84 36.3 11.44 36.3C14.92 36.3 17.42 35.66 18.94 34.38C20.46 33.06 21.22 30.96 21.22 28.08C21.22 24.96 20.42 22.84 18.82 21.72C17.18 20.56 14.44 19.98 10.6 19.98H7.54C5.34 19.98 3.74 19.5 2.74 18.54C1.78 17.54 1.3 15.94 1.3 13.74ZM27.6653 36.78C27.5453 35.7 27.9453 34.94 28.8653 34.5C29.7853 34.06 30.7053 34.06 31.6253 34.5C32.5453 34.94 32.9453 35.7 32.8253 36.78C32.8253 37.5 32.5653 38.12 32.0453 38.64C31.5653 39.12 30.9653 39.36 30.2453 39.36C29.5253 39.36 28.9053 39.12 28.3853 38.64C27.9053 38.12 27.6653 37.5 27.6653 36.78Z" fill="url(#paint0_radial_169_2093)"/>
<defs>
<radialGradient id="paint0_radial_169_2093" cx="0" cy="0" r="1" gradientUnits="userSpaceOnUse" gradientTransform="translate(47.2014 47.0908) rotate(-138.382) scale(50.3601 47.3804)">
<stop stop-color="#C6B38A"/>
<stop offset="0.463601" stop-color="#F3C691"/>
<stop offset="1" stop-color="#B4703E"/>
</radialGradient>
</defs>
</svg>

<svg xmlns="http://www.w3.org/2000/svg" width="34" height="40" fill="none" xmlns:v="https://vecta.io/nano"><path d="M1.3 13.74v-7.5c0-2.2.48-3.78 1.44-4.74 1-1 2.6-1.5 4.8-1.5h13.62c.56 0 .94.1 1.14.3s.3.58.3 1.14v.24c0 .56-.1.94-.3 1.14s-.58.3-1.14.3H7.9c-2.2 0-3.3 1.08-3.3 3.24v7.26c0 2.16 1.1 3.24 3.3 3.24h3.06c4.64 0 8.06.9 10.26 2.7s3.3 4.62 3.3 8.46-1.08 6.7-3.24 8.58c-2.12 1.88-5.44 2.82-9.96 2.82-3.44 0-6.5-.36-9.18-1.08-.6-.16-1-.32-1.2-.48-.16-.2-.24-.58-.24-1.14v-.48c0-1.12.48-1.52 1.44-1.2 2.6.84 5.7 1.26 9.3 1.26 3.48 0 5.98-.64 7.5-1.92 1.52-1.32 2.28-3.42 2.28-6.3 0-3.12-.8-5.24-2.4-6.36-1.64-1.16-4.38-1.74-8.22-1.74H7.54c-2.2 0-3.8-.48-4.8-1.44-.96-1-1.44-2.6-1.44-4.8zm26.365 23.04c-.12-1.08.28-1.84 1.2-2.28s1.84-.44 2.76 0 1.32 1.2 1.2 2.28c0 .72-.26 1.34-.78 1.86-.48.48-1.08.72-1.8.72s-1.34-.24-1.86-.72c-.48-.52-.72-1.14-.72-1.86z" fill="url(#A)"/><defs><radialGradient id="A" cx="0" cy="0" r="1" gradientUnits="userSpaceOnUse" gradientTransform="translate(47.2014 47.0908) rotate(-138.382) scale(50.3601 47.3804)"><stop stop-color="#c6b38a"/><stop offset=".464" stop-color="#f3c691"/><stop offset="1" stop-color="#b4703e"/></radialGradient></defs></svg>
